X:7
T:Cotton Patch Rag 2
M:4/4
L:1/8
K:C
e e^f!|:"C"g^faf gecd|eged dcAG|FEFG A^GAB|cABc AG^FG|AG^FG BGBc|dedc BG
^FG|G,A,CD EGcd|egag _bagd|eg2a gecd|eged dcAG|FEFG A^GAB|cABc AGEG|BdBG
 AcAF|GAGE DB,G,2|gbge fdBd|1E2c2 e2 f2 ^f2|2E4c4 CA,|
